X: 11421
M: C	% Actually, there's no time signature given.
L: 1/16
K: D
|:\
|: (d2e2) |\
f4 e3d B3AB3c | d4 (dcde) f4 (D2E2) |\
|: (D3E) |\
g3ef3d (A2f2).e2.d2 | e4 e3e e4 |]\
e3f |\
g2f2e2d2 d2c2B2A2 | Bcdc edcB A4 a3a |
a2(ba) (gf)(ed) f3da3f | e3d e2(gf) e4 D3E |\
(AB).c.d (cd).e.f (ec)(dB) (AF)(GE) | D2(EF) (GABc) d4 :|


